img/union-11.svg

<svg fill="none" height="58" viewBox="0 0 58 58" width="58" xmlns="http://www.w3.org/2000/svg"><path d="m1.13806 28.9196h.73578zm0 27.9597h-.73578v.7358h.73578zm27.95974-55.18361c15.0353 0 27.2239 12.18861 27.2239 27.22391h1.4716c0-15.8481-12.8474-28.695477-28.6955-28.695476zm-27.22396 27.22391c0-15.0353 12.18856-27.22391 27.22396-27.22391v-1.471566c-15.8481 0-28.695522 12.847376-28.695522 28.695476zm0 27.9597v-27.9597h-1.471562l.000002 27.9597zm27.22396-.7357h-27.95974v1.4715h27.95974zm27.2239-27.224c0 15.0354-12.1886 27.2239-27.2239 27.224v1.4715c15.8481 0 28.6955-12.8474 28.6955-28.6955z" fill="#5b57ca"/></svg>

<svg width="58" height="58" viewBox="0 0 58 58" fill="none" xmlns="http://www.w3.org/2000/svg">
<path d="M1.13806 28.9196L1.87384 28.9196L1.13806 28.9196ZM1.13806 56.8793L0.40228 56.8793L0.40228 57.6151L1.13806 57.6151L1.13806 56.8793ZM29.0978 1.69569C44.1331 1.69569 56.3217 13.8843 56.3217 28.9196L57.7933 28.9196C57.7933 13.0715 44.9459 0.224123 29.0978 0.224124L29.0978 1.69569ZM1.87384 28.9196C1.87384 13.8843 14.0624 1.69569 29.0978 1.69569L29.0978 0.224124C13.2497 0.224124 0.402278 13.0715 0.402278 28.9196L1.87384 28.9196ZM1.87384 56.8793L1.87384 28.9196L0.402278 28.9196L0.40228 56.8793L1.87384 56.8793ZM29.0978 56.1436L1.13806 56.1436L1.13806 57.6151L29.0978 57.6151L29.0978 56.1436ZM56.3217 28.9196C56.3217 43.955 44.1331 56.1435 29.0978 56.1436L29.0978 57.6151C44.9459 57.6151 57.7933 44.7677 57.7933 28.9196L56.3217 28.9196Z" fill="#5B57CA"/>
</svg>
